symbols/web/dirty_lens/materialsymbolsoutlined/dirty_lens_40px.svg

<svg xmlns="http://www.w3.org/2000/svg" height="40" width="40"><path d="M30.625 30.375q-.542 0-.958-.396-.417-.396-.417-.979t.417-.979q.416-.396.958-.396.583 0 1 .396.417.396.417.979t-.417.979q-.417.396-1 .396ZM18.167 27.5q-.334 0-.605.208-.27.209-.895.959-.709.875-1.146 1.145-.438.271-.938.271-.458 0-.979-.375-.521-.375-.521-.958 0-.083.834-1.333.5-.584.708-1.084.208-.5.208-1 0-.708-.271-1.062-.27-.354-1.229-.354-.5 0-1.125-.042t-1.041-.375q-.292-.208-.396-.604-.104-.396-.104-.729 0-.5.271-.792.27-.292.979-.542.583-.208.916-.416.334-.209.334-.584 0-.25-.5-1.166-.25-.375-.334-.605-.083-.229-.083-.479 0-.458.438-.895.437-.438 1.062-.438.5 0 .833.229.334.229 1.084.938.708.708 1.125.937.416.229.875.229.375 0 .771-.25.395-.25.395-.583 0-.333-.145-.625-.146-.292-.521-.875-.375-.5-.605-.938-.229-.437-.229-.812 0-.375.5-.688.5-.312 1.25-.312.625 0 1.021.479.396.479.896 1.604.583 1.25 1.125 1.709.542.458 1.125.458.625 0 1.229-.438.604-.437 1.438-1.645 1.208-1.75 1.729-2.292.521-.542 1.104-.542.625 0 1.354.834.729.833.729 1.666 0 .584-.562 1.167-.563.583-2.271 1.333-1.583.709-2.125 1.188t-.542 1.062q0 .375.209.605.208.229.541.229.209 0 .459-.063.25-.062.708-.271.458-.208.812-.312.355-.104.688-.104.625 0 1.021.562.396.563.396 1.271 0 .75-.709 1-.708.25-1.958.333-1.458.084-1.979.229-.521.146-.521.521 0 .334.312.584.313.25 1.021.5.834.333 1.25.666.417.334.417.917 0 .708-.521 1.354-.521.646-1.396.646-.375 0-.937-.188-.563-.187-1.396-.645-.625-.334-.958-.459-.334-.125-.709-.125-.375 0-.687.355-.313.354-.313 1.062 0 .792.25 1.458.25.667.25 1.459 0 .625-.375 1.041-.375.417-1.041.417-.667 0-1.042-.417-.375-.416-.375-1.041 0-.709.167-1.334.166-.625.166-1.333t-.271-1.104q-.27-.396-.645-.396ZM6.125 35Q5 35 4.167 34.167q-.834-.834-.834-1.959V11.292q0-1.084.834-1.917.833-.833 1.958-.833h5.833L15 5h10l3.042 3.542h5.833q1.125 0 1.958.833.834.833.834 1.917v20.916q0 1.125-.834 1.959Q35 35 33.875 35Zm0-2.792h27.75V11.292h-7.083l-3.042-3.5h-7.5l-3.042 3.5H6.125v20.916ZM20 21.75Z"/></svg>

<svg xmlns="http://www.w3.org/2000/svg" height="40" width="40"><path d="M30.625 30.375Q30.083 30.375 29.667 29.979Q29.25 29.583 29.25 29Q29.25 28.417 29.667 28.021Q30.083 27.625 30.625 27.625Q31.208 27.625 31.625 28.021Q32.042 28.417 32.042 29Q32.042 29.583 31.625 29.979Q31.208 30.375 30.625 30.375ZM18.167 27.5Q17.833 27.5 17.562 27.708Q17.292 27.917 16.667 28.667Q15.958 29.542 15.521 29.812Q15.083 30.083 14.583 30.083Q14.125 30.083 13.604 29.708Q13.083 29.333 13.083 28.75Q13.083 28.667 13.917 27.417Q14.417 26.833 14.625 26.333Q14.833 25.833 14.833 25.333Q14.833 24.625 14.562 24.271Q14.292 23.917 13.333 23.917Q12.833 23.917 12.208 23.875Q11.583 23.833 11.167 23.5Q10.875 23.292 10.771 22.896Q10.667 22.5 10.667 22.167Q10.667 21.667 10.938 21.375Q11.208 21.083 11.917 20.833Q12.5 20.625 12.833 20.417Q13.167 20.208 13.167 19.833Q13.167 19.583 12.667 18.667Q12.417 18.292 12.333 18.062Q12.25 17.833 12.25 17.583Q12.25 17.125 12.688 16.688Q13.125 16.25 13.75 16.25Q14.25 16.25 14.583 16.479Q14.917 16.708 15.667 17.417Q16.375 18.125 16.792 18.354Q17.208 18.583 17.667 18.583Q18.042 18.583 18.438 18.333Q18.833 18.083 18.833 17.75Q18.833 17.417 18.688 17.125Q18.542 16.833 18.167 16.25Q17.792 15.75 17.562 15.312Q17.333 14.875 17.333 14.5Q17.333 14.125 17.833 13.812Q18.333 13.5 19.083 13.5Q19.708 13.5 20.104 13.979Q20.5 14.458 21 15.583Q21.583 16.833 22.125 17.292Q22.667 17.75 23.25 17.75Q23.875 17.75 24.479 17.312Q25.083 16.875 25.917 15.667Q27.125 13.917 27.646 13.375Q28.167 12.833 28.75 12.833Q29.375 12.833 30.104 13.667Q30.833 14.5 30.833 15.333Q30.833 15.917 30.271 16.5Q29.708 17.083 28 17.833Q26.417 18.542 25.875 19.021Q25.333 19.5 25.333 20.083Q25.333 20.458 25.542 20.688Q25.75 20.917 26.083 20.917Q26.292 20.917 26.542 20.854Q26.792 20.792 27.25 20.583Q27.708 20.375 28.062 20.271Q28.417 20.167 28.75 20.167Q29.375 20.167 29.771 20.729Q30.167 21.292 30.167 22Q30.167 22.75 29.458 23Q28.75 23.25 27.5 23.333Q26.042 23.417 25.521 23.562Q25 23.708 25 24.083Q25 24.417 25.312 24.667Q25.625 24.917 26.333 25.167Q27.167 25.5 27.583 25.833Q28 26.167 28 26.75Q28 27.458 27.479 28.104Q26.958 28.75 26.083 28.75Q25.708 28.75 25.146 28.562Q24.583 28.375 23.75 27.917Q23.125 27.583 22.792 27.458Q22.458 27.333 22.083 27.333Q21.708 27.333 21.396 27.688Q21.083 28.042 21.083 28.75Q21.083 29.542 21.333 30.208Q21.583 30.875 21.583 31.667Q21.583 32.292 21.208 32.708Q20.833 33.125 20.167 33.125Q19.5 33.125 19.125 32.708Q18.75 32.292 18.75 31.667Q18.75 30.958 18.917 30.333Q19.083 29.708 19.083 29Q19.083 28.292 18.812 27.896Q18.542 27.5 18.167 27.5ZM6.125 35Q5 35 4.167 34.167Q3.333 33.333 3.333 32.208V11.292Q3.333 10.208 4.167 9.375Q5 8.542 6.125 8.542H11.958L15 5H25L28.042 8.542H33.875Q35 8.542 35.833 9.375Q36.667 10.208 36.667 11.292V32.208Q36.667 33.333 35.833 34.167Q35 35 33.875 35ZM6.125 32.208H18.75H21.583H33.875Q33.875 32.208 33.875 32.208Q33.875 32.208 33.875 32.208V11.292Q33.875 11.292 33.875 11.292Q33.875 11.292 33.875 11.292H26.792L23.75 7.792H16.25L13.208 11.292H6.125Q6.125 11.292 6.125 11.292Q6.125 11.292 6.125 11.292V32.208Q6.125 32.208 6.125 32.208Q6.125 32.208 6.125 32.208ZM20 21.75Q20 21.75 20 21.75Q20 21.75 20 21.75Q20 21.75 20 21.75Q20 21.75 20 21.75Q20 21.75 20 21.75Q20 21.75 20 21.75Q20 21.75 20 21.75Q20 21.75 20 21.75Z"/></svg>
